src/widgets/Header/_i/Logo.svg

<svg width="188" height="120" viewBox="0 0 188 120" fill="none" xmlns="http://www.w3.org/2000/svg">
<g clip-path="url(#clip0_69_4717)">
<path fill-rule="evenodd" clip-rule="evenodd" d="M25.2208 73.0732H11.9567V56.3881H17.1202L25.2303 73.0732H25.2208ZM36.3247 36.072V69.8404L26.244 52.0177L36.3247 36.0626V36.072ZM11.9567 33.9106H25.524L17.1202 48.2161H11.9567V33.9106ZM0 33.9106H0.729527V73.0637H0V33.9106Z" fill="#DB1C41"/>
<path fill-rule="evenodd" clip-rule="evenodd" d="M47.1162 41.2956H51.3702C52.6777 41.2956 54.8852 41.4094 56.3064 42.547C57.898 43.7984 58.0686 45.8366 58.0686 46.9742C58.0686 48.1119 57.898 50.1501 56.3064 51.4015C54.8852 52.5391 52.6777 52.6529 51.3702 52.6529H47.1162V41.3051V41.2956Z" fill="#DB1C41"/>
<path fill-rule="evenodd" clip-rule="evenodd" d="M86.3777 41.2956H87.6283L91.7118 56.1036H82.3037L86.3777 41.2956Z" fill="#EC691F"/>
<path fill-rule="evenodd" clip-rule="evenodd" d="M96.648 73.0732H77.3677L79.9163 64.3893H94.0899L96.648 73.0732Z" fill="#EC691F"/>
<path fill-rule="evenodd" clip-rule="evenodd" d="M95.5869 33.9106H119.083C117.027 34.5457 115.028 35.4558 113.181 36.7546C108.813 39.8167 105.241 44.9834 105.241 53.2122C105.241 62.6829 109.893 67.5652 113.181 69.8404C115.53 71.4615 118.259 72.4664 121.064 73.0732H108.557L95.5869 33.9201V33.9106Z" fill="#EC691F"/>
<path fill-rule="evenodd" clip-rule="evenodd" d="M116.8 53.0984C116.8 51.0033 117.028 46.8605 118.837 43.9027C119.804 42.3669 122.068 39.6461 126.606 39.4186V66.7688C122.637 66.5982 120.202 64.5031 118.837 62.2847C117.018 59.3364 116.8 55.2504 116.8 53.089" fill="#149A76"/>
<path fill-rule="evenodd" clip-rule="evenodd" d="M58.3623 33.9106H78.429L65.4586 73.0637H47.1162V60.8058H51.0291C55.4537 60.8058 60.333 60.5214 64.0659 58.0281C68.4904 55.0798 69.3431 50.8232 69.3431 47.0785C69.3431 43.3339 68.4904 39.0773 64.0659 36.1289C62.351 34.9818 60.3993 34.3087 58.3623 33.9011" fill="#EC691F"/>
<path fill-rule="evenodd" clip-rule="evenodd" d="M146.967 53.0984C146.967 55.2504 146.739 59.3364 144.93 62.2942C143.565 64.5031 141.13 66.6077 137.161 66.7783V39.428C141.13 39.5987 143.565 41.6938 144.93 43.9122C146.749 46.8605 146.967 50.9464 146.967 53.1079M177.218 73.0732H187.991V41.5895H177.218V73.0732ZM155.332 41.58C157.275 44.5094 158.535 48.3204 158.535 53.2122C158.535 62.5786 153.883 67.3945 150.595 69.6698C148.066 71.4141 145.081 72.4569 142.049 73.0732H165.991V41.5895H155.323L155.332 41.58ZM155.219 33.9106H144.693C146.749 34.5457 148.748 35.4558 150.595 36.7546C152.32 37.9586 153.911 39.4944 155.219 41.4189V33.9106Z" fill="#149A76"/>
<path d="M40.6546 96.5935C40.6546 98.2809 40.5978 99.9115 39.7546 101.438C38.8071 103.125 37.2249 103.865 35.6995 103.865C34.1742 103.865 32.5919 103.125 31.6445 101.438C30.8013 99.9115 30.7444 98.2714 30.7444 96.5935C30.7444 94.9155 30.8013 93.2754 31.6445 91.7491C32.5919 90.0616 34.1742 89.3222 35.6995 89.3222C37.2249 89.3222 38.8071 90.0616 39.7546 91.7491C40.5978 93.2754 40.6546 94.9155 40.6546 96.5935ZM47.8173 72.5707H38.0776C33.4446 72.5707 28.8117 72.675 25.0693 76.3154C20.6447 80.534 20.5405 87.227 20.5405 90.602V93.0289C20.5405 96.0815 20.91 101.722 24.1218 105.675C27.76 110.103 33.0751 110.52 36.0785 110.52C39.2903 110.52 43.7148 109.942 47.0877 106.832C48.7742 105.249 51.1996 102.092 51.3038 96.6029C51.408 91.7017 49.5605 88.431 47.2962 86.3738C45.7708 84.9992 42.9285 83.1032 38.2387 83.1032C34.9226 83.1032 32.8098 83.9943 30.8676 85.7861V84.2598C30.8676 82.0983 31.8719 80.9891 32.393 80.5151C33.7668 79.3585 36.0217 79.3016 37.7649 79.3016H47.8267V72.5517L47.8173 72.5707Z" fill="#EC691F"/>
<path d="M75.1887 96.1194C75.1887 97.3803 75.0845 99.2858 74.137 100.755C73.1896 102.234 71.8158 102.917 70.0251 102.917C68.2345 102.917 66.8607 102.234 65.8659 100.698C64.9185 99.2195 64.8142 97.4846 64.8142 96.11C64.8142 94.7353 64.9185 93.0574 65.8659 91.5784C66.8702 90.0521 68.2913 89.3601 70.0251 89.3601C71.759 89.3601 73.1896 90.0427 74.137 91.5216C74.9802 92.8393 75.1887 94.4699 75.1887 96.11M85.1368 83.1032H75.2834L74.9139 86.4212C73.2275 83.6815 70.3283 82.2594 66.6996 82.2594C62.8057 82.2594 59.8023 83.7857 57.6895 86.1558C55.7946 88.2604 54.165 91.5879 54.165 96.2711C54.165 100.954 55.7946 104.282 57.6895 106.386C59.7928 108.757 62.7962 110.283 66.6996 110.283C72.2327 110.283 74.2791 107.173 74.9139 106.017L75.2834 109.439H85.1368V83.0842V83.1032Z" fill="#EC691F"/>
<path d="M102.399 93.4366V98.8687H103.555C104.237 98.8687 105.924 98.9161 106.719 99.7598C107.193 100.291 107.458 101.134 107.402 101.978C107.345 102.869 107.032 103.609 106.141 104.14C105.355 104.614 104.559 104.614 103.669 104.614C102.664 104.614 101.717 104.557 100.826 103.827C99.6705 102.879 99.6136 101.561 99.6136 100.717V100.082H89.0781C89.0781 104.244 91.4467 107.458 95.1891 109.145C98.0883 110.463 100.931 110.624 103.773 110.624C106.615 110.624 110.149 110.52 113.153 109.098C116.203 107.676 117.947 105.41 117.947 101.931C117.947 100.452 117.577 99.0299 116.582 97.8733C116.052 97.2381 115.057 96.347 113.475 95.9772C114.318 95.7118 115.474 95.1904 116.421 93.8158C117.208 92.6592 117.425 91.4457 117.425 90.1754C117.378 86.8004 115.635 84.8001 112.897 83.4824C110.898 82.5344 108.16 81.9561 104.048 81.9561C99.2536 81.9561 96.6766 82.8472 95.3028 83.4824C92.3563 84.857 89.7224 87.8527 89.6182 92.28H99.9358V91.2751C99.9358 89.9005 100.514 89.0093 101.092 88.5353C101.878 87.8527 102.825 87.6916 103.726 87.6916C104.256 87.6916 105.355 87.6916 106.151 88.3267C106.947 88.9619 107.098 89.9099 107.098 90.5356C107.098 91.1139 106.994 91.9577 106.359 92.5928C105.573 93.3797 104.512 93.4366 103.564 93.4366H102.409H102.399Z" fill="#DB1C41"/>
<path d="M141.831 96.1194C141.831 97.3803 141.727 99.2858 140.78 100.755C139.832 102.234 138.458 102.917 136.668 102.917C134.877 102.917 133.513 102.234 132.508 100.698C131.561 99.2195 131.457 97.4846 131.457 96.11C131.457 94.7353 131.561 93.0574 132.508 91.5784C133.513 90.0521 134.934 89.3601 136.668 89.3601C138.402 89.3601 139.832 90.0427 140.78 91.5216C141.623 92.8393 141.831 94.4699 141.831 96.11M151.779 83.1032H141.935L141.566 86.4212C139.88 83.6815 136.98 82.2594 133.352 82.2594C129.458 82.2594 126.454 83.7857 124.342 86.1558C122.447 88.2604 120.808 91.5879 120.808 96.2711C120.808 100.954 122.437 104.282 124.342 106.386C126.445 108.757 129.448 110.283 133.352 110.283C138.885 110.283 140.941 107.173 141.566 106.017L141.935 109.439H151.779V83.0842V83.1032Z" fill="#DB1C41"/>
<path d="M156.763 83.1032V119.991H166.986V106.026C168.672 108.766 171.572 110.188 175.2 110.188C179.625 110.188 182.571 108.188 184.21 106.396C186.105 104.339 187.744 100.916 187.744 96.2806C187.744 91.6448 186.115 88.213 184.21 86.1653C182.154 83.8995 179.047 82.3732 175.2 82.3732C172.51 82.3732 168.928 83.2169 166.986 86.4307L166.617 83.1127H156.763V83.1032ZM166.721 96.1194C166.721 94.7448 166.882 92.9626 167.725 91.5879C168.511 90.2702 169.828 89.379 171.884 89.379C173.618 89.379 175.049 90.0616 176.044 91.5879C176.991 93.0668 177.095 94.8017 177.095 96.1194C177.095 97.4372 176.991 99.2289 176.044 100.708C175.039 102.234 173.618 102.917 171.884 102.917C169.828 102.917 168.511 102.026 167.725 100.708C166.882 99.3332 166.721 97.551 166.721 96.1194Z" fill="#149A76"/>
<path d="M83.1662 11.4236C85.0042 10.3523 86.6054 9.04409 87.9128 7.7927C89.2203 9.04409 90.8215 10.3523 92.6595 11.4236H83.1567H83.1662ZM97.3967 25.1225H93.4553C90.6225 21.975 89.0498 17.9649 89.0498 13.6988H95.8997C95.8997 17.5952 96.4113 21.4252 97.3967 25.1225ZM82.3703 25.1225H78.4195C79.4048 21.4347 79.9165 17.6047 79.9165 13.6988H86.7664C86.7664 17.9554 85.2032 21.975 82.3703 25.1225ZM100.466 11.4236C96.0134 11.4236 91.9773 8.63644 89.0498 5.71655V3.43182H92.47L91.3236 0.00948334H86.757V5.71655C83.8388 8.63644 79.8028 11.4236 75.3403 11.4236V13.7083H77.6237C77.6237 18.5622 76.7994 23.1885 75.3403 27.4167H83.3651C85.3737 25.4069 86.9275 22.942 87.9034 20.2117C88.8792 22.942 90.4235 25.4069 92.4416 27.4167H100.466C99.0073 23.198 98.183 18.5622 98.183 13.7083H100.466V11.4236Z" fill="#EC691F"/>
<path d="M66.3583 20.5246C65.6572 19.5292 65.1172 18.4105 64.7666 17.235L64.2266 15.4148L62.5023 16.2016C61.5927 16.6187 60.6453 16.9031 59.6789 17.0643C59.84 16.0973 60.1242 15.1588 60.5411 14.2487L61.3275 12.5233L59.5084 11.9924C58.3335 11.6416 57.2156 11.1013 56.2208 10.3903C57.3577 9.7077 58.6557 9.34745 60.0105 9.34745C61.9812 9.34745 63.8287 10.1153 65.2309 11.5089C67.6658 13.9453 68.0353 17.6805 66.3489 20.5151M62.1517 23.5582C61.3938 22.5723 60.9864 21.4441 60.9864 20.2781C60.9864 19.6145 61.1285 18.9698 61.3843 18.3536C61.8391 18.2209 62.2844 18.0692 62.7107 17.8891C63.0992 18.638 63.3171 19.4438 63.3171 20.2781C63.3171 21.4441 62.9097 22.5723 62.1517 23.5582ZM59.7452 22.6576C59.2999 23.7383 58.4946 24.62 57.4145 25.2362C57.1966 24.4494 57.1682 23.6625 57.2914 22.9041C58.1156 22.724 58.8831 22.4301 59.6031 22.0698C59.6505 22.2405 59.6979 22.4206 59.7642 22.5912C59.7642 22.6102 59.7547 22.6292 59.7452 22.6481V22.6576ZM55.2544 21.5295C55.3112 20.0221 55.7091 18.6285 56.4008 17.4246C56.9408 17.4246 57.4903 17.3582 58.0304 17.235C57.9546 17.7753 57.9072 18.3252 57.9072 18.875C58.4662 18.875 59.0062 18.8276 59.5368 18.7613C59.4136 19.3016 59.3473 19.842 59.3473 20.3918C58.1441 21.0839 56.7513 21.4726 55.2449 21.5389L55.2544 21.5295ZM53.2174 14.6089C54.2027 13.8505 55.3207 13.4429 56.4955 13.4429C57.3293 13.4429 58.1346 13.6609 58.8831 14.0496C58.703 14.4857 58.5515 14.9313 58.4188 15.3768C57.803 15.6328 57.1493 15.775 56.486 15.775C55.3207 15.775 54.1932 15.3674 53.2079 14.6089H53.2174ZM54.3638 24.0607C53.53 24.9802 52.3836 25.5491 51.0667 25.7197C51.2088 24.5726 51.6636 23.5487 52.3931 22.7429C52.7437 22.3637 53.1605 22.0509 53.6058 21.7854C53.6058 22.2215 53.6153 22.6671 53.6627 23.1127C54.1175 23.1601 54.5533 23.1695 54.9891 23.1601C54.8091 23.4729 54.6101 23.7763 54.3638 24.0417V24.0607ZM51.5309 19.3585C52.1657 18.2493 53.0942 17.4435 54.1838 17.0169C54.3543 17.0738 54.5248 17.1212 54.6954 17.1686C54.3354 17.8891 54.0511 18.6665 53.8616 19.5007C53.5964 19.5386 53.3216 19.5671 53.0468 19.5671C52.5447 19.5671 52.0331 19.5007 51.5309 19.3585ZM69.0491 8.88292L67.8932 7.72634L65.8088 9.81198C62.2654 6.85416 56.9882 7.03429 53.6627 10.3618C54.2501 10.9401 54.8849 11.4331 55.5386 11.8787C53.8427 12.1251 52.1942 13.0352 50.8867 14.6089C51.3699 15.1872 51.9004 15.6707 52.4594 16.0689C51.0667 16.96 49.9582 18.3631 49.3803 20.2402C50.1761 20.6573 50.972 20.9322 51.7678 21.0744C50.1003 22.5059 49.1718 24.7432 49.4182 27.3598C52.0331 27.6063 54.2596 26.6677 55.6997 24.9992C55.8418 25.7955 56.1165 26.5919 56.5334 27.3882C58.4093 26.8099 59.8115 25.7007 60.7021 24.3072C61.1001 24.8665 61.5833 25.3974 62.1612 25.8809C63.7245 24.5821 64.634 22.942 64.8898 21.2451C65.3446 21.9087 65.8467 22.5249 66.4152 23.0937C69.7407 19.7662 69.9207 14.4857 66.9647 10.9401L69.0585 8.85448L69.0491 8.88292Z" fill="#149A76"/>
<path d="M41.1852 14.2582C41.1852 14.7606 40.9862 15.2346 40.6357 15.5854L37.4333 18.7897V10.4946H41.1852V14.2487V14.2582ZM33.672 25.5301H24.2924C23.2597 25.5301 22.4165 24.6864 22.4165 23.653V10.504H24.2924V23.653H26.1683V10.504H28.0442V23.653H29.9202V10.504H31.7961V23.653H33.672V10.504H35.5479V23.653C35.5479 24.6864 34.7047 25.5301 33.672 25.5301ZM35.5479 6.74988V8.62696H22.407V6.74988H35.5479ZM41.1852 8.62696H37.4333V4.87281H20.5405V23.653C20.5405 25.7292 22.2175 27.4072 24.2924 27.4072H33.672C35.7469 27.4072 37.4239 25.7292 37.4239 23.653V21.4536L41.9526 16.9221C42.6348 16.2395 43.0516 15.301 43.0516 14.2677V10.5135C43.0516 9.48017 42.2084 8.63644 41.1757 8.63644L41.1852 8.62696Z" fill="#DB1C41"/>
<path d="M123.243 25.35C122.674 25.35 122.21 24.8854 122.21 24.3166C122.21 23.7478 122.674 23.2833 123.243 23.2833C123.811 23.2833 124.275 23.7478 124.275 24.3166C124.275 24.8854 123.811 25.35 123.243 25.35ZM120.343 23.2928H112.091L113.655 17.5478C114.725 17.927 115.872 18.1356 117.065 18.1356C118.259 18.1356 119.406 17.9175 120.476 17.5478L121.613 21.7001C121.026 22.0698 120.58 22.6197 120.343 23.2833V23.2928ZM109.097 9.90678H125.043C124.124 13.4524 120.902 16.0879 117.075 16.0879C113.247 16.0879 110.016 13.4618 109.097 9.90678ZM123.631 21.2735L122.371 16.6567C125.355 14.8554 127.364 11.5848 127.364 7.8401H106.786C106.786 11.5848 108.785 14.8554 111.779 16.6567L108.851 27.4072H110.983L111.542 25.35H120.353C120.779 26.5445 121.907 27.4072 123.252 27.4072C124.957 27.4072 126.341 26.0231 126.341 24.3166C126.341 22.7429 125.156 21.4536 123.641 21.264L123.631 21.2735Z" fill="#DB1C41"/>
<path d="M114.091 5.78291H111.921L112.954 2.70185H115.123L114.091 5.78291Z" fill="#DB1C41"/>
<path d="M118.212 5.78291H116.042L117.065 2.70185H119.244L118.212 5.78291Z" fill="#DB1C41"/>
<path d="M122.323 5.78291H120.154L121.187 2.70185H123.356L122.323 5.78291Z" fill="#DB1C41"/>
</g>
<defs>
<clipPath id="clip0_69_4717">
<rect width="188" height="120" fill="white"/>
</clipPath>
</defs>
</svg>

<svg xmlns="http://www.w3.org/2000/svg" width="188" height="120" fill="none" viewBox="0 0 188 120"><g clip-path="url(#a)"><path fill="#DB1C41" fill-rule="evenodd" d="M25.22 73.073H11.958V56.388h5.163l8.11 16.685zm11.105-37.001V69.84L26.244 52.018l10.08-15.955zm-24.368-2.161h13.567L17.12 48.216h-5.163zM0 33.91h.73v39.153H0zm47.116 7.386h4.254c1.308 0 3.515.113 4.936 1.251 1.592 1.251 1.763 3.29 1.763 4.427 0 1.138-.171 3.176-1.763 4.428-1.42 1.137-3.628 1.25-4.936 1.25h-4.254z" clip-rule="evenodd"/><path fill="#EC691F" fill-rule="evenodd" d="M86.378 41.296h1.25l4.084 14.808h-9.408zm10.27 31.777h-19.28l2.548-8.684H94.09zM95.587 33.91h23.496c-2.056.636-4.055 1.546-5.902 2.845-4.368 3.062-7.94 8.228-7.94 16.457 0 9.47 4.652 14.353 7.94 16.628 2.349 1.621 5.078 2.626 7.883 3.233h-12.507L95.587 33.92z" clip-rule="evenodd"/><path fill="#149A76" fill-rule="evenodd" d="M116.8 53.098c0-2.095.228-6.237 2.037-9.195.967-1.536 3.231-4.257 7.769-4.484v27.35c-3.969-.17-6.404-2.266-7.769-4.484-1.819-2.949-2.037-7.035-2.037-9.196" clip-rule="evenodd"/><path fill="#EC691F" fill-rule="evenodd" d="M58.362 33.91H78.43L65.46 73.064H47.116V60.806h3.913c4.425 0 9.304-.285 13.037-2.778 4.424-2.948 5.277-7.205 5.277-10.95s-.853-8-5.277-10.95c-1.715-1.146-3.667-1.82-5.704-2.227" clip-rule="evenodd"/><path fill="#149A76" fill-rule="evenodd" d="M146.967 53.098c0 2.152-.228 6.238-2.037 9.196-1.365 2.21-3.8 4.314-7.769 4.484v-27.35c3.969.17 6.404 2.266 7.769 4.484 1.819 2.949 2.037 7.034 2.037 9.196m30.251 19.965h10.773V41.59h-10.773zM155.332 41.58c1.943 2.93 3.203 6.74 3.203 11.632 0 9.367-4.652 14.182-7.94 16.458-2.529 1.744-5.514 2.787-8.546 3.403h23.942V41.59h-10.668zm-.113-7.67h-10.526c2.056.636 4.055 1.546 5.902 2.845a18 18 0 0 1 4.624 4.664z" clip-rule="evenodd"/><path fill="#EC691F" d="M40.655 96.594c0 1.687-.057 3.318-.9 4.844-.948 1.687-2.53 2.427-4.056 2.427-1.525 0-3.107-.74-4.054-2.427-.844-1.526-.9-3.167-.9-4.844s.056-3.319.9-4.845c.947-1.687 2.53-2.427 4.055-2.427s3.107.74 4.055 2.427c.843 1.526.9 3.166.9 4.845m7.162-24.023h-9.74c-4.632 0-9.265.104-13.008 3.744-4.424 4.219-4.528 10.912-4.528 14.287v2.427c0 3.053.369 8.693 3.58 12.646 3.639 4.428 8.954 4.845 11.958 4.845 3.211 0 7.636-.578 11.009-3.688 1.686-1.583 4.112-4.74 4.216-10.23.104-4.9-1.744-8.171-4.008-10.228-1.525-1.375-4.367-3.27-9.057-3.27-3.316 0-5.43.89-7.371 2.682V84.26c0-2.162 1.004-3.27 1.525-3.745 1.374-1.156 3.629-1.213 5.372-1.213h10.062v-6.75zM75.189 96.12c0 1.26-.104 3.166-1.052 4.635-.947 1.479-2.321 2.162-4.112 2.162s-3.164-.683-4.16-2.219c-.947-1.478-1.05-3.213-1.05-4.588s.103-3.053 1.05-4.532c1.005-1.526 2.426-2.218 4.16-2.218s3.165.683 4.112 2.162c.843 1.317 1.052 2.948 1.052 4.588m9.948-13.007h-9.854l-.37 3.318c-1.685-2.74-4.585-4.162-8.213-4.162-3.894 0-6.898 1.527-9.01 3.897-1.895 2.104-3.525 5.432-3.525 10.115s1.63 8.011 3.525 10.115c2.103 2.371 5.106 3.897 9.01 3.897 5.533 0 7.58-3.11 8.214-4.266l.37 3.422h9.853V83.084z"/><path fill="#DB1C41" d="M102.399 93.437v5.432h1.156c.682 0 2.369.047 3.164.89.474.532.739 1.375.683 2.219-.057.891-.37 1.631-1.261 2.162-.786.474-1.582.474-2.472.474-1.005 0-1.952-.057-2.843-.787-1.155-.948-1.212-2.266-1.212-3.11v-.635H89.078c0 4.162 2.369 7.376 6.111 9.063 2.9 1.318 5.742 1.479 8.584 1.479s6.376-.104 9.38-1.526c3.05-1.422 4.794-3.688 4.794-7.167 0-1.479-.37-2.901-1.365-4.058a5.7 5.7 0 0 0-3.107-1.896c.843-.265 1.999-.787 2.946-2.161.787-1.157 1.004-2.37 1.004-3.64-.047-3.376-1.79-5.376-4.528-6.694-1.999-.948-4.737-1.526-8.849-1.526-4.794 0-7.371.891-8.745 1.526-2.947 1.375-5.58 4.37-5.685 8.798h10.318v-1.005c0-1.375.578-2.266 1.156-2.74.786-.682 1.733-.843 2.634-.843.53 0 1.629 0 2.425.635s.947 1.583.947 2.209c0 .578-.104 1.422-.739 2.057-.786.787-1.847.844-2.795.844zm39.432 2.683c0 1.26-.104 3.166-1.051 4.635-.948 1.479-2.322 2.162-4.112 2.162s-3.155-.683-4.16-2.219c-.947-1.478-1.051-3.213-1.051-4.588s.104-3.053 1.051-4.532c1.005-1.526 2.426-2.218 4.16-2.218s3.164.683 4.112 2.162c.843 1.317 1.051 2.948 1.051 4.588m9.948-13.007h-9.844l-.369 3.318c-1.686-2.74-4.586-4.162-8.214-4.162-3.894 0-6.898 1.527-9.01 3.897-1.895 2.104-3.534 5.432-3.534 10.115s1.629 8.011 3.534 10.115c2.103 2.371 5.106 3.897 9.01 3.897 5.533 0 7.589-3.11 8.214-4.266l.369 3.422h9.844V83.084z"/><path fill="#149A76" d="M156.763 83.103v36.888h10.223v-13.965c1.686 2.74 4.586 4.162 8.214 4.162 4.425 0 7.371-2 9.01-3.792 1.895-2.057 3.534-5.48 3.534-10.115 0-4.636-1.629-8.068-3.534-10.116-2.056-2.266-5.163-3.792-9.01-3.792-2.69 0-6.272.844-8.214 4.058l-.369-3.318h-9.854zm9.958 13.016c0-1.374.161-3.156 1.004-4.531.786-1.318 2.103-2.209 4.159-2.209 1.734 0 3.165.683 4.16 2.209.947 1.479 1.051 3.214 1.051 4.531 0 1.318-.104 3.11-1.051 4.589-1.005 1.526-2.426 2.209-4.16 2.209-2.056 0-3.373-.891-4.159-2.209-.843-1.375-1.004-3.157-1.004-4.589"/><path fill="#EC691F" d="M83.166 11.424c1.838-1.072 3.44-2.38 4.747-3.631 1.307 1.251 2.909 2.56 4.746 3.63h-9.502zm14.23 13.699h-3.94c-2.834-3.148-4.406-7.158-4.406-11.424h6.85c0 3.896.511 7.726 1.497 11.423m-15.026 0h-3.95a44.2 44.2 0 0 0 1.496-11.424h6.85c0 4.256-1.563 8.276-4.396 11.423m18.096-13.7c-4.453 0-8.489-2.787-11.416-5.706V3.432h3.42L91.324.009h-4.567v5.708c-2.918 2.92-6.954 5.707-11.417 5.707v2.284h2.284c0 4.854-.825 9.48-2.284 13.709h8.025a19.45 19.45 0 0 0 4.538-7.205c.976 2.73 2.52 5.195 4.539 7.205h8.024a42 42 0 0 1-2.283-13.709h2.283z"/><path fill="#149A76" d="M66.358 20.525a11.4 11.4 0 0 1-1.591-3.29l-.54-1.82-1.725.787c-.91.417-1.857.701-2.823.862.161-.967.445-1.905.862-2.815l.787-1.726-1.82-.53a11.2 11.2 0 0 1-3.287-1.603 7.33 7.33 0 0 1 3.79-1.043c1.97 0 3.818.768 5.22 2.162 2.435 2.436 2.804 6.171 1.118 9.006m-4.197 3.043c-.758-.986-1.166-2.114-1.166-3.28 0-.663.143-1.308.398-1.924.455-.133.9-.285 1.327-.465.388.749.606 1.555.606 2.39 0 1.165-.407 2.293-1.165 3.28m-2.407-.9c-.445 1.08-1.25 1.962-2.33 2.578a5.4 5.4 0 0 1-.124-2.332 10 10 0 0 0 2.312-.834c.047.17.095.35.161.521 0 .02-.01.038-.019.057zm-4.49-1.129c.056-1.507.454-2.9 1.146-4.104.54 0 1.09-.067 1.63-.19a12 12 0 0 0-.124 1.64c.56 0 1.1-.047 1.63-.114a7.3 7.3 0 0 0-.19 1.63c-1.203.693-2.596 1.082-4.102 1.148zm-2.038-6.92c.986-.758 2.104-1.166 3.279-1.166.833 0 1.639.218 2.387.607q-.268.656-.464 1.327a5 5 0 0 1-1.933.398c-1.165 0-2.293-.408-3.278-1.166zm1.147 9.452c-.834.92-1.98 1.488-3.297 1.659.142-1.147.597-2.171 1.326-2.977.35-.38.767-.692 1.213-.958 0 .436.01.882.057 1.328.455.047.89.056 1.326.047-.18.313-.379.616-.625.882zm-2.833-4.703c.635-1.109 1.563-1.915 2.653-2.341.17.057.34.104.511.152a10.3 10.3 0 0 0-.833 2.332 6 6 0 0 1-.815.066 5.6 5.6 0 0 1-1.516-.209M69.049 8.884l-1.156-1.157-2.084 2.086c-3.544-2.958-8.82-2.778-12.146.55a13.4 13.4 0 0 0 1.876 1.517c-1.696.246-3.345 1.156-4.652 2.73a8.4 8.4 0 0 0 1.572 1.46c-1.392.891-2.5 2.294-3.079 4.171a8.3 8.3 0 0 0 2.388.834c-1.668 1.432-2.596 3.67-2.35 6.286 2.615.246 4.842-.692 6.282-2.36.142.796.416 1.592.833 2.388 1.876-.578 3.279-1.687 4.17-3.08.397.558.88 1.09 1.458 1.573 1.563-1.299 2.473-2.939 2.729-4.636.455.664.957 1.28 1.525 1.849 3.326-3.328 3.506-8.608.55-12.154l2.093-2.086z"/><path fill="#DB1C41" d="M41.185 14.258c0 .503-.199.977-.55 1.327l-3.202 3.205v-8.295h3.752zM33.672 25.53h-9.38a1.88 1.88 0 0 1-1.876-1.877V10.504h1.876v13.149h1.876V10.504h1.876v13.149h1.876V10.504h1.876v13.149h1.876V10.504h1.876v13.149a1.88 1.88 0 0 1-1.876 1.877m1.876-18.78v1.877H22.407V6.75zm5.637 1.877h-3.752V4.873H20.541v18.78a3.75 3.75 0 0 0 3.751 3.754h9.38a3.75 3.75 0 0 0 3.752-3.754v-2.2l4.529-4.53a3.74 3.74 0 0 0 1.099-2.655v-3.754a1.88 1.88 0 0 0-1.876-1.878zm82.058 16.723a1.035 1.035 0 0 1-1.033-1.033c0-.57.464-1.034 1.033-1.034.568 0 1.032.465 1.032 1.034 0 .568-.464 1.033-1.032 1.033m-2.9-2.057h-8.252l1.564-5.745c1.07.379 2.217.588 3.41.588s2.341-.218 3.411-.588l1.137 4.152a3.1 3.1 0 0 0-1.27 1.583zM109.097 9.907h15.946c-.919 3.545-4.141 6.18-7.968 6.18s-7.059-2.625-7.978-6.18m14.534 11.366-1.26-4.616c2.984-1.802 4.993-5.072 4.993-8.817h-20.578a10.27 10.27 0 0 0 4.993 8.817l-2.928 10.75h2.132l.559-2.057h8.811a3.08 3.08 0 0 0 2.899 2.057 3.083 3.083 0 0 0 .389-6.143zm-9.54-15.49h-2.17l1.033-3.081h2.169zm4.121 0h-2.17l1.023-3.081h2.179zm4.111 0h-2.169l1.033-3.081h2.169z"/></g><defs><clipPath id="a"><path fill="#fff" d="M0 0h188v120H0z"/></clipPath></defs></svg>
